svg/OSM-icons/leisure #21610b °ffffff !label=enleisure,deFreizeit/21158;leisure=pitch;!name=;#sport=horseshoes;[addr];[contact];!label=enhorse shoes,deHufeisen- werfen.svg

<svg xmlns="http://www.w3.org/2000/svg" viewBox="0 0 580 580" enable-background="new 0 0 580 580"><path fill="#111" stroke="#eee" stroke-width="3.408" d="m66.28 1.768c-41.34 0-64.57 21.371-64.57 65.04v450.12c0 40.844 20.894 62.23 62.19 62.23h452.02c41.31 0 62.23-20.316 62.23-62.23v-450.12c0-42.601-20.923-65.04-63.52-65.04-.003 0-448.49-.143-448.35 0z"/><path fill="#fff" d="m341.92 92.43l37.01-22.458-55.835-29.424-74.69 45.32c0 0 163.58 99.7 186.97 190.4 22.253 86.31-36.19 142.17-57.976 155.57-21.953 13.13-98.48 39.17-164.76-20.426-69.65-62.63-82.53-253.77-82.53-253.77l-74.69 45.32.311 63.11 37.02-22.459c0 0-4.528 114.03 80.937 225.8 84.977 111.14 214.8 51.582 244.26 35.968l.136.222c0 0 1.054-.637 2.935-1.885 1.975-1.092 3.03-1.73 3.03-1.73l-.137-.223c27.46-18.929 140.24-106.57 80.91-233.27-59.668-127.42-162.9-176.07-162.9-176.07m-155.74 342.27c-7.117 4.319-16.39 2.05-20.708-5.068-4.319-7.117-2.05-16.391 5.068-20.709 7.119-4.32 16.392-2.05 20.71 5.068 4.319 7.117 2.049 16.39-5.07 20.709m-53.28-116.88c-7.118 4.318-16.392 2.049-20.71-5.069-4.318-7.118-2.05-16.392 5.07-20.71 7.117-4.318 16.389-2.05 20.708 5.068 4.319 7.12 2.049 16.392-5.068 20.711m154.23 180.42c-7.118 4.32-16.389 2.05-20.707-5.068-4.321-7.119-2.053-16.391 5.067-20.709 7.119-4.32 16.388-2.05 20.71 5.068 4.318 7.119 2.051 16.391-5.07 20.709m117.69-21.21c-7.121 4.32-16.391 2.05-20.709-5.069-4.319-7.118-2.052-16.389 5.066-20.709 7.121-4.319 16.39-2.049 20.709 5.069s2.052 16.39-5.066 20.709m71.69-93.68c-7.119 4.318-16.391 2.05-20.71-5.067-4.319-7.12-2.05-16.392 5.069-20.71 7.118-4.319 16.39-2.05 20.709 5.068 4.318 7.119 2.05 16.39-5.068 20.709m-110.5-224.59c-4.319-7.119-2.05-16.39 5.068-20.711 7.119-4.318 16.391-2.048 20.709 5.069 4.32 7.119 2.05 16.392-5.067 20.711-7.12 4.318-16.392 2.049-20.71-5.069m99.77 106.31c-7.119 4.318-16.39 2.05-20.709-5.069-4.319-7.117-2.051-16.39 5.068-20.709 7.118-4.318 16.391-2.048 20.709 5.069 4.32 7.119 2.05 16.39-5.068 20.709"/></svg>

<?xml version="1.0" encoding="utf-8"?>
<!-- Generator: Adobe Illustrator 15.0.0, SVG Export Plug-In . SVG Version: 6.00 Build 0)  -->
<!DOCTYPE svg PUBLIC "-//W3C//DTD SVG 1.1//EN" "http://www.w3.org/Graphics/SVG/1.1/DTD/svg11.dtd">
<svg version="1.1" xmlns="http://www.w3.org/2000/svg" xmlns:xlink="http://www.w3.org/1999/xlink" x="0px" y="0px" width="580px"
	 height="580px" viewBox="0 0 580 580" enable-background="new 0 0 580 580" xml:space="preserve">
<g id="Layer_2">
	<g id="g1327">
		<path id="path1329" fill="#111111" stroke="#EEEEEE" stroke-width="3.408" d="M66.275,1.768
			c-41.335,0-64.571,21.371-64.571,65.036v450.123c0,40.844,20.894,62.229,62.192,62.229H515.92
			c41.307,0,62.229-20.316,62.229-62.229V66.804c0-42.601-20.923-65.036-63.522-65.036C514.624,1.768,66.133,1.625,66.275,1.768z"/>
	</g>
</g>
<g id="svg2" inkscape:output_extension="org.inkscape.output.svg.inkscape" xmlns:cc="http://creativecommons.org/ns#" xmlns:svg="http://www.w3.org/2000/svg" xmlns:sodipodi="http://sodipodi.sourceforge.net/DTD/sodipodi-0.dtd" xmlns:rdf="http://www.w3.org/1999/02/22-rdf-syntax-ns#" xmlns:dc="http://purl.org/dc/elements/1.1/" xmlns:inkscape="http://www.inkscape.org/namespaces/inkscape" sodipodi:docname="waste_bin.svg" inkscape:version="0.46" sodipodi:version="0.32">
	<g>
		<g>
			<path fill="#FFFFFF" d="M341.922,92.426l37.014-22.458l-55.835-29.424l-74.689,45.318c0,0,163.583,99.696,186.969,190.403
				c22.253,86.309-36.189,142.167-57.976,155.572c-21.953,13.134-98.483,39.172-164.764-20.426
				c-69.654-62.635-82.533-253.77-82.533-253.77l-74.689,45.318l0.311,63.114l37.016-22.459c0,0-4.528,114.028,80.937,225.797
				c84.977,111.137,214.795,51.582,244.264,35.968l0.136,0.222c0,0,1.054-0.637,2.935-1.885c1.975-1.092,3.027-1.73,3.027-1.73
				l-0.137-0.223c27.46-18.929,140.239-106.567,80.91-233.268C445.15,141.073,341.922,92.426,341.922,92.426z M186.187,434.697
				c-7.117,4.319-16.39,2.05-20.708-5.068c-4.319-7.117-2.05-16.391,5.068-20.709c7.119-4.32,16.392-2.05,20.71,5.068
				C195.576,421.105,193.306,430.378,186.187,434.697z M132.905,317.817c-7.118,4.318-16.392,2.049-20.71-5.069
				c-4.318-7.118-2.05-16.392,5.07-20.71c7.117-4.318,16.389-2.05,20.708,5.068C142.292,304.226,140.022,313.498,132.905,317.817z
				 M287.138,498.239c-7.118,4.32-16.389,2.05-20.707-5.068c-4.321-7.119-2.053-16.391,5.067-20.709
				c7.119-4.32,16.388-2.05,20.71,5.068C296.526,484.649,294.259,493.921,287.138,498.239z M404.823,477.024
				c-7.121,4.32-16.391,2.05-20.709-5.069c-4.319-7.118-2.052-16.389,5.066-20.709c7.121-4.319,16.39-2.049,20.709,5.069
				S411.941,472.705,404.823,477.024z M476.509,383.34c-7.119,4.318-16.391,2.05-20.71-5.067c-4.319-7.12-2.05-16.392,5.069-20.71
				c7.118-4.319,16.39-2.05,20.709,5.068C485.895,369.75,483.627,379.021,476.509,383.34z M366.009,158.747
				c-4.319-7.119-2.05-16.39,5.068-20.711c7.119-4.318,16.391-2.048,20.709,5.069c4.32,7.119,2.05,16.392-5.067,20.711
				C379.599,168.134,370.327,165.865,366.009,158.747z M465.779,265.055c-7.119,4.318-16.39,2.05-20.709-5.069
				c-4.319-7.117-2.051-16.39,5.068-20.709c7.118-4.318,16.391-2.048,20.709,5.069C475.167,251.465,472.897,260.736,465.779,265.055
				z"/>
		</g>
	</g>
</g>
</svg>
